svgs/regular/user-vneck-hair.svg

<svg xmlns="http://www.w3.org/2000/svg" viewBox="0 0 448 512"><!--! Font Awesome Pro 6.3.0 by @fontawesome - https://fontawesome.com License - https://fontawesome.com/license (Commercial License) Copyright 2023 Fonticons, Inc. --><path d="M304 128c0-11.4-2.4-22.2-6.7-32H296c-20.5 0-38.7-9.6-50.4-24.5C231.9 95.7 205.8 112 176 112H145.6c-1 5.2-1.6 10.5-1.6 16v16c0 44.2 35.8 80 80 80s80-35.8 80-80V128zM96 128C96 57.3 153.3 0 224 0s128 57.3 128 128v16c0 70.7-57.3 128-128 128s-128-57.3-128-128V128zM48.3 464H399.7c-3.1-46.7-32.9-86.2-74.4-103.1l-50.2 66.9c-25.6 34.1-76.8 34.1-102.4 0l-50.2-66.9C81.2 377.8 51.3 417.3 48.3 464zm83.8-156.2c5.8-1.3 11.7 1.2 15.3 5.9l63.9 85.2c6.4 8.5 19.2 8.5 25.6 0l63.9-85.2c3.6-4.7 9.5-7.2 15.3-5.9C391.4 324.3 448 391.5 448 472v8c0 17.7-14.3 32-32 32H32c-17.7 0-32-14.3-32-32v-8c0-80.5 56.6-147.7 132.1-164.2z"/></svg>

<svg xmlns="http://www.w3.org/2000/svg" viewBox="0 0 448 512"><!--! Font Awesome Pro 6.2.0 by @fontawesome - https://fontawesome.com License - https://fontawesome.com/license (Commercial License) Copyright 2022 Fonticons, Inc. --><path d="M96 128C96 57.31 153.3 0 224 0C294.7 0 352 57.31 352 128V144C352 214.7 294.7 272 224 272C153.3 272 96 214.7 96 144V128zM297.3 96H296C275.5 96 257.3 86.4 245.6 71.46C231.9 95.67 205.8 112 176 112H145.6C144.6 117.2 144 122.5 144 128V144C144 188.2 179.8 224 224 224C268.2 224 304 188.2 304 144V128C304 116.6 301.6 105.8 297.3 96zM448 480C448 497.7 433.7 512 416 512H32C14.33 512 0 497.7 0 480V472C0 388.2 61.33 318.8 141.6 306.1L224 416L306.4 306.1C386.7 318.8 448 388.2 448 472V480zM122.6 360.9C81.2 377.8 51.34 417.3 48.26 464H199.1L122.6 360.9zM325.4 360.9L248 464H399.7C396.7 417.3 366.8 377.8 325.4 360.9z"/></svg>
